close-network.svg

<svg fill="currentColor" viewBox="0 0 24 24"><path d="M14.59 6 12 8.59 9.41 6 8 7.41 10.59 10 8 12.59 9.41 14 12 11.41 14.59 14 16 12.59 13.41 10 16 7.41zM17 3a2 2 0 0 1 2 2v10a2 2 0 0 1-2 2h-4v2h1a1 1 0 0 1 1 1h7v2h-7a1 1 0 0 1-1 1h-4a1 1 0 0 1-1-1H2v-2h7a1 1 0 0 1 1-1h1v-2H7a2 2 0 0 1-2-2V5a2 2 0 0 1 2-2z"/></svg>

<svg  viewBox="0 0 24 24" fill="currentColor"><path  d="M14.59,6L12,8.59L9.41,6L8,7.41L10.59,10L8,12.59L9.41,14L12,11.41L14.59,14L16,12.59L13.41,10L16,7.41L14.59,6M17,3A2,2 0 0,1 19,5V15A2,2 0 0,1 17,17H13V19H14A1,1 0 0,1 15,20H22V22H15A1,1 0 0,1 14,23H10A1,1 0 0,1 9,22H2V20H9A1,1 0 0,1 10,19H11V17H7C5.89,17 5,16.1 5,15V5A2,2 0 0,1 7,3H17Z"/></svg>
